packages/core/src/svgs/tokens/branded/CHR.svg

<svg width="24" height="24" viewBox="0 0 24 24" fill="none" xmlns="http://www.w3.org/2000/svg">
<path d="M15.6334 15.889C14.9667 17.1778 13.6333 18.1111 12.1111 18.1111C9.72224 18.1111 8.0944 16.4334 8.11107 13.9667C8.12774 11.5 9.69994 9.77778 12.1111 9.77778C12.8448 9.7927 13.5606 10.0075 14.1813 10.3991C14.8019 10.7908 15.304 11.3443 15.6334 12.0001H19.7778C18.9444 8.46111 15.8333 5.88889 12.1111 5.88889C7.75551 5.88889 4.22217 9.5 4.22217 13.9445C4.22217 18.3889 7.75551 22 12.1111 22C15.8222 22 18.9334 19.4111 19.7778 15.889H15.6334Z" fill="#FFB0C2"/>
<path d="M18.2778 8.93337C18.7352 8.56146 19.1062 8.09457 19.3652 7.56506C19.6242 7.03553 19.765 6.45602 19.7778 5.8667C19.7764 5.35746 19.6746 4.85348 19.4784 4.38357C19.2821 3.91365 18.9952 3.48699 18.6342 3.12793C18.2731 2.76888 17.8448 2.48447 17.3737 2.29093C16.9027 2.09741 16.3981 1.99855 15.8889 2.00002C13.7444 2.00002 12 3.75557 12 5.88892H12.2222C14.7001 5.88892 16.85 7.11115 18.2778 8.93337Z" fill="#CC91F0"/>
<path d="M15.8945 9.72779C16.8278 9.72779 17.6112 9.46667 18.2778 8.92778C17.5707 7.98897 16.6563 7.22623 15.6059 6.69909C14.5555 6.17195 13.3975 5.89467 12.2222 5.88889H12C12.0074 6.91343 12.421 7.89317 13.1502 8.61296C13.8794 9.33274 14.8643 9.7337 15.8889 9.72779H15.8945Z" fill="#CB65B7"/>
</svg>

<svg xmlns="http://www.w3.org/2000/svg" width="24" height="24" fill="none" viewBox="0 0 24 24">
    <path fill="#FFB0C2" d="M15.633 15.889c-.666 1.289-2 2.222-3.522 2.222-2.389 0-4.017-1.678-4-4.144s1.589-4.19 4-4.19A4.03 4.03 0 0 1 15.633 12h4.145c-.834-3.539-3.945-6.111-7.667-6.111-4.355 0-7.889 3.611-7.889 8.055 0 4.445 3.534 8.056 7.89 8.056 3.71 0 6.821-2.589 7.666-6.111z"/>
    <path fill="#CC91F0" d="M18.278 8.933a4.07 4.07 0 0 0 1.5-3.066A3.877 3.877 0 0 0 15.888 2 3.9 3.9 0 0 0 12 5.889h.222c2.478 0 4.628 1.222 6.056 3.044"/>
    <path fill="#CB65B7" d="M15.895 9.728c.933 0 1.716-.261 2.383-.8a7.63 7.63 0 0 0-6.056-3.04H12a3.867 3.867 0 0 0 3.889 3.84z"/>
</svg>
